public/assets/images/Sponsors/Solana.svg

<svg width="291" height="44" viewBox="0 0 291 44" fill="none" xmlns="http://www.w3.org/2000/svg">
<g clip-path="url(#clip0_938_86)">
<path d="M48.8889 34.0956L40.9067 42.6544C40.734 42.8403 40.5249 42.9887 40.2924 43.0902C40.0599 43.1917 39.809 43.2443 39.5553 43.2445H1.71625C1.53578 43.2445 1.35925 43.1917 1.20829 43.0928C1.05732 42.9939 0.938471 42.8532 0.866284 42.6878C0.794097 42.5224 0.771709 42.3395 0.801863 42.1616C0.832017 41.9836 0.913398 41.8183 1.03605 41.6859L9.00927 33.1271C9.18193 32.9413 9.39099 32.7929 9.62352 32.6913C9.85601 32.5898 10.107 32.5373 10.3607 32.537H48.1997C48.3817 32.5333 48.5609 32.5834 48.7146 32.6813C48.8682 32.7791 48.9898 32.9202 49.0632 33.0868C49.1371 33.2534 49.1596 33.4381 49.1285 33.6176C49.0975 33.7971 49.0141 33.9634 48.8889 34.0956ZM40.9067 16.8563C40.7334 16.6713 40.5241 16.5235 40.2918 16.422C40.0594 16.3206 39.8088 16.2676 39.5553 16.2663H1.71625C1.53578 16.2664 1.35925 16.3191 1.20829 16.418C1.05732 16.5169 0.938471 16.6576 0.866284 16.823C0.794097 16.9885 0.771709 17.1713 0.801863 17.3492C0.832017 17.5272 0.913398 17.6925 1.03605 17.8249L9.00927 26.3882C9.18256 26.5733 9.39181 26.721 9.62416 26.8225C9.8565 26.9239 10.1071 26.977 10.3607 26.9783H48.1997C48.3799 26.9773 48.5555 26.9239 48.706 26.8248C48.8565 26.7255 48.9745 26.5847 49.0461 26.4195C49.1177 26.2542 49.1398 26.0717 49.1092 25.8942C49.079 25.7167 48.9979 25.5518 48.8754 25.4197L40.9067 16.8563ZM1.71625 10.7075H39.5553C39.809 10.7073 40.0599 10.6547 40.2924 10.5532C40.5249 10.4517 40.734 10.3033 40.9067 10.1174L48.8889 1.55859C49.0141 1.42639 49.0975 1.26007 49.1285 1.08057C49.1596 0.901061 49.1371 0.716384 49.0632 0.549776C48.9898 0.383167 48.8682 0.242071 48.7146 0.144243C48.5609 0.0464136 48.3817 -0.00377811 48.1997 -1.66789e-05H10.3607C10.107 0.000250375 9.85601 0.0527859 9.62352 0.154314C9.39099 0.255842 9.18193 0.404185 9.00927 0.590092L1.03605 9.14889C0.913398 9.28128 0.832017 9.44661 0.801863 9.62454C0.771709 9.80247 0.794097 9.98531 0.866284 10.1507C0.938471 10.3161 1.05732 10.4569 1.20829 10.5558C1.35925 10.6547 1.53578 10.7074 1.71625 10.7075Z" fill="url(#paint0_linear_938_86)"/>
<path d="M95.0209 18.289H74.777V11.6221H100.282V4.95521H74.7094C73.8355 4.95048 72.9697 5.11787 72.1607 5.44783C71.3517 5.77784 70.6151 6.26394 69.9944 6.87842C69.3732 7.4929 68.8791 8.22373 68.5403 9.02912C68.2016 9.83455 68.0245 10.6988 68.02 11.5725V18.3295C68.0236 19.204 68.1993 20.0692 68.5376 20.8757C68.8759 21.6821 69.3696 22.414 69.9908 23.0294C70.6124 23.6449 71.349 24.1318 72.1584 24.4623C72.9679 24.7929 73.8351 24.9606 74.7094 24.9558H94.9803V31.6227H68.502V38.2896H95.0209C95.8948 38.2943 96.7606 38.1269 97.5696 37.7969C98.3786 37.4669 99.1151 36.9808 99.7359 36.3664C100.357 35.7519 100.851 35.0211 101.19 34.2157C101.529 33.4102 101.706 32.546 101.71 31.6723V24.9153C101.707 24.0408 101.531 23.1756 101.193 22.3691C100.854 21.5627 100.361 20.8308 99.7395 20.2154C99.1178 19.5999 98.3813 19.113 97.5718 18.7825C96.7624 18.4519 95.8952 18.2842 95.0209 18.289Z" fill="#9945FF"/>
<path d="M134.239 4.95512H113.918C113.043 4.948 112.175 5.11363 111.364 5.44256C110.553 5.77149 109.814 6.25718 109.191 6.87193C108.568 7.48664 108.072 8.21823 107.733 9.02484C107.393 9.83144 107.215 10.6972 107.211 11.5724V31.6722C107.215 32.5474 107.393 33.4132 107.733 34.2198C108.072 35.0264 108.568 35.758 109.191 36.3727C109.814 36.9874 110.553 37.4731 111.364 37.802C112.175 38.131 113.043 38.2966 113.918 38.2895H134.239C135.112 38.2942 135.978 38.1268 136.787 37.7969C137.596 37.4668 138.333 36.9807 138.954 36.3663C139.575 35.7518 140.069 35.021 140.408 34.2156C140.746 33.4101 140.923 32.5459 140.928 31.6722V11.5724C140.923 10.6987 140.746 9.83446 140.408 9.02903C140.069 8.22364 139.575 7.49281 138.954 6.87833C138.333 6.26385 137.596 5.77775 136.787 5.44774C135.978 5.11778 135.112 4.95039 134.239 4.95512ZM134.189 31.6226H113.968V11.622H134.18L134.189 31.6226Z" fill="#9945FF"/>
<path d="M205.412 4.95514H185.591C184.718 4.95041 183.852 5.11781 183.043 5.44777C182.234 5.77778 181.497 6.26388 180.876 6.87836C180.255 7.49283 179.761 8.22367 179.422 9.02905C179.084 9.83448 178.907 10.6987 178.902 11.5725V38.2895H185.659V27.3387H205.389V38.2895H212.146V11.5725C212.142 10.6949 211.963 9.82696 211.622 9.01856C211.28 8.2102 210.782 7.47738 210.156 6.86227C209.531 6.24721 208.789 5.76206 207.975 5.43475C207.16 5.10745 206.289 4.94447 205.412 4.95514ZM205.362 20.6718H185.632V11.622H205.362V20.6718Z" fill="#9945FF"/>
<path d="M284.311 4.95521H264.49C263.616 4.95048 262.75 5.11787 261.941 5.44783C261.132 5.77784 260.396 6.26394 259.775 6.87842C259.154 7.4929 258.66 8.22373 258.321 9.02912C257.982 9.83455 257.805 10.6988 257.801 11.5725V38.2896H264.558V27.3388H284.243V38.2896H291V11.5725C290.996 10.6988 290.818 9.83455 290.48 9.02912C290.141 8.22373 289.647 7.4929 289.026 6.87842C288.404 6.26394 287.668 5.77784 286.859 5.44783C286.05 5.11787 285.185 4.95048 284.311 4.95521ZM284.243 20.6719H264.513V11.6221H284.243V20.6719Z" fill="#9945FF"/>
<path d="M245.053 31.6227H242.35L232.687 7.74805C232.356 6.92437 231.787 6.21845 231.051 5.72087C230.316 5.22324 229.449 4.95661 228.561 4.95517H222.566C221.983 4.95219 221.405 5.06404 220.866 5.28428C220.326 5.50455 219.836 5.82889 219.421 6.23881C219.007 6.64878 218.678 7.13623 218.452 7.67345C218.227 8.21063 218.109 8.78704 218.106 9.36972V38.2895H224.863V11.622H227.566L237.224 35.4967C237.56 36.3188 238.135 37.0218 238.873 37.516C239.611 38.0103 240.48 38.2733 241.368 38.2715H247.364C247.947 38.2745 248.524 38.1627 249.063 37.9424C249.603 37.7222 250.093 37.3978 250.508 36.9879C250.922 36.5779 251.251 36.0905 251.477 35.5533C251.702 35.0161 251.82 34.4397 251.823 33.857V4.95517H245.053V31.6227Z" fill="#9945FF"/>
<path d="M153.653 4.95511H146.896V31.6721C146.901 32.5478 147.079 33.4139 147.419 34.2208C147.759 35.0277 148.255 35.7595 148.879 36.3743C149.502 36.9891 150.241 37.4747 151.052 37.8033C151.864 38.132 152.733 38.2972 153.608 38.2895H173.879V31.6226H153.653V4.95511Z" fill="#9945FF"/>
</g>
<defs>
<linearGradient id="paint0_linear_938_86" x1="4.8695" y1="44.2762" x2="44.5464" y2="-0.454985" gradientUnits="userSpaceOnUse">
<stop offset="0.08" stop-color="#9945FF"/>
<stop offset="0.3" stop-color="#8752F3"/>
<stop offset="0.5" stop-color="#5497D5"/>
<stop offset="0.6" stop-color="#43B4CA"/>
<stop offset="0.72" stop-color="#28E0B9"/>
<stop offset="0.97" stop-color="#19FB9B"/>
</linearGradient>
<clipPath id="clip0_938_86">
<rect width="291" height="43.2446" fill="white"/>
</clipPath>
</defs>
</svg>

<svg xmlns="http://www.w3.org/2000/svg" width="291" height="44" fill="none"><g clip-path="url(#a)"><path fill="url(#b)" d="m48.889 34.096-7.982 8.558a1.85 1.85 0 0 1-1.352.59H1.716a.927.927 0 0 1-.68-1.558l7.973-8.559a1.85 1.85 0 0 1 1.352-.59H48.2a.924.924 0 0 1 .689 1.559m-7.982-17.24a1.87 1.87 0 0 0-1.352-.59H1.716a.928.928 0 0 0-.68 1.559l7.973 8.563a1.87 1.87 0 0 0 1.352.59H48.2a.93.93 0 0 0 .675-1.558zm-39.19-6.149h37.838a1.85 1.85 0 0 0 1.352-.59l7.982-8.558A.924.924 0 0 0 48.199 0H10.362a1.85 1.85 0 0 0-1.352.59L1.036 9.15a.928.928 0 0 0 .68 1.559"/><path fill="#9945FF" d="M95.02 18.289H74.778v-6.667h25.505V4.955H74.709a6.65 6.65 0 0 0-6.689 6.618v6.756a6.653 6.653 0 0 0 6.69 6.627h20.27v6.667H68.502v6.667h26.519a6.65 6.65 0 0 0 6.689-6.618v-6.757a6.65 6.65 0 0 0-4.138-6.132 6.7 6.7 0 0 0-2.551-.494M134.239 4.955h-20.321a6.65 6.65 0 0 0-6.707 6.617v20.1c.004.875.182 1.741.522 2.548a6.64 6.64 0 0 0 3.631 3.582 6.7 6.7 0 0 0 2.554.487h20.321a6.654 6.654 0 0 0 6.689-6.617v-20.1a6.66 6.66 0 0 0-4.141-6.125 6.7 6.7 0 0 0-2.548-.492m-.05 26.668h-20.221V11.622h20.212zM205.412 4.955h-19.821a6.65 6.65 0 0 0-6.689 6.618v26.716h6.757V27.34h19.73v10.95h6.757V11.572a6.65 6.65 0 0 0-6.734-6.617m-.05 15.717h-19.73v-9.05h19.73zM284.311 4.955H264.49a6.654 6.654 0 0 0-6.689 6.618V38.29h6.757V27.339h19.685v10.95H291V11.573a6.653 6.653 0 0 0-6.689-6.617m-.068 15.717h-19.73v-9.05h19.73zM245.053 31.623h-2.703l-9.663-23.875a4.45 4.45 0 0 0-4.126-2.793h-5.995a4.436 4.436 0 0 0-4.46 4.415v28.92h6.757V11.621h2.703l9.658 23.875a4.465 4.465 0 0 0 4.144 2.775h5.996a4.43 4.43 0 0 0 3.144-1.284 4.44 4.44 0 0 0 1.315-3.131V4.955h-6.77zM153.653 4.955h-6.757v26.717a6.66 6.66 0 0 0 4.156 6.131 6.7 6.7 0 0 0 2.556.486h20.271v-6.666h-20.226z"/></g><defs><linearGradient id="b" x1="4.87" x2="44.546" y1="44.276" y2="-.455" gradientUnits="userSpaceOnUse"><stop offset=".08" stop-color="#9945FF"/><stop offset=".3" stop-color="#8752F3"/><stop offset=".5" stop-color="#5497D5"/><stop offset=".6" stop-color="#43B4CA"/><stop offset=".72" stop-color="#28E0B9"/><stop offset=".97" stop-color="#19FB9B"/></linearGradient><clipPath id="a"><path fill="#fff" d="M0 0h291v43.245H0z"/></clipPath></defs></svg>
